src/lib/packages/icons/src/assets/filled/playlist.svg

<svg width="24" height="24" viewBox="0 0 24 24" fill="none" xmlns="http://www.w3.org/2000/svg">
<path d="M18 6.75H6C5.586 6.75 5.25 6.414 5.25 6C5.25 5.586 5.586 5.25 6 5.25H18C18.414 5.25 18.75 5.586 18.75 6C18.75 6.414 18.414 6.75 18 6.75ZM16.75 3C16.75 2.586 16.414 2.25 16 2.25H8C7.586 2.25 7.25 2.586 7.25 3C7.25 3.414 7.586 3.75 8 3.75H16C16.414 3.75 16.75 3.414 16.75 3ZM21 12V19C21 21 20 22 18 22H6C4 22 3 21 3 19V12C3 10 4 9 6 9H18C20 9 21 10 21 12ZM14.5811 14.7539L11.432 12.8269C10.805 12.4439 9.99902 12.893 9.99902 13.626V17.373C9.99902 18.106 10.805 18.5561 11.432 18.1721L14.5811 16.2451C15.1401 15.9041 15.1401 15.0959 14.5811 14.7539Z" fill="currentColor"/>
</svg>

<svg xmlns="http://www.w3.org/2000/svg" width="24" height="24" fill="none"><path fill="currentColor" d="M18 6.75H6a.75.75 0 0 1 0-1.5h12a.75.75 0 0 1 0 1.5ZM16.75 3a.75.75 0 0 0-.75-.75H8a.75.75 0 0 0 0 1.5h8a.75.75 0 0 0 .75-.75ZM21 12v7c0 2-1 3-3 3H6c-2 0-3-1-3-3v-7c0-2 1-3 3-3h12c2 0 3 1 3 3Zm-6.419 2.754-3.149-1.927a.941.941 0 0 0-1.433.799v3.747a.94.94 0 0 0 1.433.8l3.15-1.928a.873.873 0 0 0 0-1.491Z"/></svg>
